src/asset/24px/stats-up.svg

<svg width="24" height="24" viewBox="0 0 24 24" fill="none" xmlns="http://www.w3.org/2000/svg">
<path fill-rule="evenodd" clip-rule="evenodd" d="M16 6C15.4477 6 15 5.55228 15 5C15 4.44772 15.4477 4 16 4H21C21.5523 4 22 4.44772 22 5V10C22 10.5523 21.5523 11 21 11C20.4477 11 20 10.5523 20 10V7.41421L15.3415 12.0727C14.3473 13.0669 12.7959 13.2372 11.6096 12.4823L8.81665 10.705C8.42122 10.4534 7.90408 10.5101 7.57266 10.8415L3.70711 14.7071C3.31658 15.0976 2.68342 15.0976 2.29289 14.7071C1.90237 14.3166 1.90237 13.6834 2.29289 13.2929L6.15845 9.42734C7.15271 8.43307 8.70413 8.26277 9.8904 9.01767L12.6834 10.795C13.0788 11.0466 13.5959 10.9899 13.9273 10.6585L18.5858 6H16ZM21 20H3C2.44772 20 2 19.5523 2 19C2 18.4477 2.44772 18 3 18H21C21.5523 18 22 18.4477 22 19C22 19.5523 21.5523 20 21 20Z" fill="#808080"/>
</svg>

<svg width="24" height="24" fill="none" xmlns="http://www.w3.org/2000/svg"><path fill-rule="evenodd" clip-rule="evenodd" d="M16 6a1 1 0 110-2h5a1 1 0 011 1v5a1 1 0 11-2 0V7.414l-4.659 4.659a3 3 0 01-3.731.41l-2.793-1.778a1 1 0 00-1.244.136l-3.866 3.866a1 1 0 01-1.414-1.414l3.865-3.866a3 3 0 013.732-.41l2.793 1.778a1 1 0 001.244-.136L18.586 6H16zm5 14H3a1 1 0 110-2h18a1 1 0 110 2z" fill="gray"/></svg>
